X:1
T:Title
%%score { 1 | 2 }
L:1/8
M:4/4
K:G
V:1 treble nm="Grand Piano"
V:2 treble 
V:1
 z4 z2 z[Q:1/4=80] G | BBAG BB G/G/G/G/ |[M:7/8] [EA][EG][DF] [CE] [B,D]3 |[M:1/8] G/G/ | %4
[M:4/4] BBAG B d2 B/B/ |[M:7/8] [GB][FA][FA] [GB] [FA]3 |[M:1/8] G/G/ |[M:4/4] BBAG B B2 G/G/ | %8
[M:7/8] [EA][EG][DF] [CE] [B,D]3 |[M:1/8] G/G/ |[M:4/4] BBdB [EA] [Ec]2 [EA]/[EA]/ | %11
[M:7/8] GGF F G3 |[M:1/8] B/c/ |[M:4/4] dded B d2 d/d/ |[M:7/8] [Fd][Bd][GB] [FA] B3 | %15
[M:1/8] B/c/ |[M:4/4] dded B d2 d/d/ |[M:7/8] [Fd][Fc][FB] [CDA] [B,DG]3 |] %18
V:2
 z4 z2 z [G,B,D] | [G,DG][G,DG][G,CG][G,B,] [G,DG][G,DG][K:bass] [G,B,D]/[G,B,D]/[G,B,D]/[G,B,D]/ | %2
[M:7/8] [C,C][C,G,][C,G,] [C,G,] [G,,G,]3 |[M:1/8][K:treble] [G,B,D]/[G,B,D]/ | %4
[M:4/4] [G,DG][G,DG][G,CG][G,B,] [G,DG] [G,B,G]2 [G,DG]/[G,DG]/ | %5
[M:7/8][K:bass] [D,D][D,D][D,D] [D,D] [D,D]3 |[M:1/8][K:treble] [G,B,D]/[G,B,D]/ | %7
[M:4/4] [G,DG][G,DG][G,CG][G,B,] [G,DG] [G,DG]2[K:bass] [G,B,D]/[G,B,D]/ | %8
[M:7/8] [C,C][C,G,][C,G,] [C,G,] [G,,G,]3 |[M:1/8][K:treble] [G,B,D]/[G,B,D]/ | %10
[M:4/4] [G,DG][G,DG][G,B,G][G,DG][K:bass] [C,C] [C,C]2 [C,C]/[C,C]/ | %11
[M:7/8] [D,B,D][D,B,D][D,A,D] [D,A,D][K:treble] [G,B,D]3 |[M:1/8] [G,DG]/[G,A,G]/ | %13
[M:4/4] [G,B,G][G,B,G][G,CG][G,B,G] [G,DG] [G,B,G]2 [G,B,G]/[G,B,G]/ | %14
[M:7/8][K:bass] [D,A,][D,D][D,D] [D,D][K:treble] [G,DG]3 |[M:1/8] [G,DG]/[G,A,G]/ | %16
[M:4/4] [G,B,G][G,B,G][G,CG][G,B,G] [G,DG] [G,B,G]2 [G,B,G]/[G,B,G]/ | %17
[M:7/8][K:bass] [D,A,][D,D][D,D] D, G,,3 |] %18

